X: 10272
T: the DUCKS DANG O'ER MY DADDIE
Q: "Lively"
%R: jig
B: "Edinburgh Repository of Music" v.1 p.27 #2
F: http://digital.nls.uk/special-collections-of-printed-music/pageturner.cfm?id=87776133
Z: 2015 John Chambers <jc:trillian.mit.edu>
M: 6/8
L: 1/8
K: D
f/e/ |\
d2A FED | E>FE cBc |\
d2A F2E | FDD D2 :|\
|: A |\
dcd Bcd | efd cBA |
dcd efg | fdd d2f |\
Tgfg Bcd | efd cBA |\
d2A F2E | FDD D2 :|
